X: 40
T: Missa de beata virgine / Agnus Dei
N: Derived from Rue1008e-Missa_De_beata_virgine-Agnus.krn
C: Pierre de la Rue
%%abc-version 2.0
%%abcx-abcm2ps-target-version 5.9.1 (29 Sep 2008)
%%abc-creator hum2abc beta
%%abcx-conversion-date 2019/02/17 08:01:11
%%abc-edited-by Jesse Rodin
%%abc-edited-by Chris Gage 09-22-2012
%%abcx-initial-encoding-date 2012/10/13/
%%humdrum-veritas 3559351005
%%humdrum-veritas-data 325680466
%%linebreak <none>
%%barnumbers 0
L: 1/4
M: 3/1
Q: 1/2=120
%%staves [1 2 3 4]
V: 1 clef=treble
V: 2 clef=treble-8
V: 3 clef=treble-8
V: 4 clef=bass
K: F
[V:1] c8A4 | 
[V:2] c4c2A4F2- | 
[V:3] c12- | 
[V:4] z12 | 
[V:1] F4G8 | 
[V:2] F2f4ede4 | 
[V:3] c12 | 
[V:4] z12 | 
[V:1] F2c3BA3GFE | 
[V:2] f8f2d2- | 
[V:3] A8F4 | 
[V:4] F,8D,4 | 
[V:1] D2G3FEDE4 | 
[V:2] d2d2c8 | 
[V:3] G12 | 
[V:4] B,,4C,8 | 
[V:1] F4z2F2A3B | 
[V:2] A3Bc2d2c2f2 | 
[V:3] F8z2F2 | 
[V:4] z2F,2A,3B,C2D2 | 
[V:1] c2d4c3=B=B2 | 
[V:2] e2a3gefg4 | 
[V:3] A3Bc4d4 | 
[V:4] C2F,2A,4G,4 | 
[V:1] c4z2c4c2 | 
[V:2] z2e3fg2a4- | 
[V:3] c12 | 
[V:4] z2C,3D,E,2F,4- | 
[V:1] d4f8 | 
[V:2] a4A6F2 | 
[V:3] f12 | 
[V:4] F,4D,8 | 
[V:1] e2d4c4=B2 | 
[V:2] c2d2g4z2g2- | 
[V:3] g4e2c2d4 | 
[V:4] C,2B,,2C,4G,4 | 
[V:1] c8z2c2- | 
[V:2] gfedc4z2c2- | 
[V:3] c4z2c3BAG | 
[V:4] z2C3B,A,G,F,4 | 
[V:1] cBAGF4f4 | 
[V:2] c2B2A3GF3E | 
[V:3] F2f3edcB3A | 
[V:4] F,6E,2D,4 | 
[V:1] e6dcd2c2- | 
[V:2] G2g4fef4 | 
[V:3] c8z4 | 
[V:4] C,8z4 | 
[V:1] cBG4c3BA2- | 
[V:2] e4z4z2e2 | 
[V:3] c8A4- | 
[V:4] C,3D,E,2F,3G,A,2 | 
[V:1] AGF3GABc4 | 
[V:2] f6edc4 | 
[V:3] A4F8 | 
[V:4] D,4D,E,F,G,A,4 | 
[V:1] d3cB2A2G2FE | 
[V:2] g4d4z2g2- | 
[V:3] B12- | 
[V:4] G,6F,2_E,3D,/C,/ | 
[V:1] D2d4f4f2 | 
[V:2] g2f4edc2f2 | 
[V:3] B8A4 | 
[V:4] B,,8F,4 | 
[V:1] e4c4A2c2- | 
[V:2] gfede4f3e/d/ | 
[V:3] G8F4 | 
[V:4] C,8z2F,2 | 
[V:1] cBA2G2F2E2A2- | 
[V:2] c4z2d2e2fe | 
[V:3] z2F2E2F2G2A2- | 
[V:4] E,2F,2G,2A,2B,2C2 | 
[V:1] A2G4F4E2 | 
[V:2] dcc4B2c4 | 
[V:3] ABc2F4G4 | 
[V:4] F,2E,2D,4C,4 | 
[V:1] F12 ||  
[V:2] c12 ||  
[V:3] F12 ||  
[V:4] z4F,4F,4 ||  
[V:1]  [K:F] [K:clef=treble][M:2/1]c8 | 
[V:2]  [K:F] [K:clef=treble-8][M:2/1]z8 | 
[V:3]  [K:F] [K:clef=treble-8][M:2/1]f8- | 
[V:4]  [K:F] [K:clef=bass][M:2/1]F,8 | 
[V:1] c6BA | 
[V:2] z8 | 
[V:3] f8- | 
[V:4] F,6G,A, | 
[V:1] d2c4BA | 
[V:2] z8 | 
[V:3] f8 | 
[V:4] B,2A,4G,F, | 
[V:1] G8 | 
[V:2] z4g4 | 
[V:3] e8 | 
[V:4] C8 | 
[V:1] c8 | 
[V:2] g6fe | 
[V:3] e8 | 
[V:4] C,6D,E, | 
[V:1] c8 | 
[V:2] a2g4fe | 
[V:3] c8 | 
[V:4] F,2E,4D,C, | 
[V:1] B4A4- | 
[V:2] d4f4- | 
[V:3] d8- | 
[V:4] G,4F,4 | 
[V:1] A2GFB2A2- | 
[V:2] f2edg2f2- | 
[V:3] d8 | 
[V:4] D,8 | 
[V:1] A2GFE4 | 
[V:2] f2ed^c3=B | 
[V:3] e8 | 
[V:4] A,8 | 
[V:1] D8- | 
[V:2] d4a4- | 
[V:3] f8- | 
[V:4] D,8- | 
[V:1] D8 | 
[V:2] a2gfb2a2- | 
[V:3] f8 | 
[V:4] D,8 | 
[V:1] z4E4 | 
[V:2] a2gfe4 | 
[V:3] e4c4 | 
[V:4] A,8 | 
[V:1] F6ED | 
[V:2] d6cB | 
[V:3] d8- | 
[V:4] D,8- | 
[V:1] F3GA4 | 
[V:2] A2F2f4 | 
[V:3] d8- | 
[V:4] D,8 | 
[V:1] B8 | 
[V:2] g8 | 
[V:3] d8 | 
[V:4] G,8 | 
[V:1] A4A2d2- | 
[V:2] f2d3efg | 
[V:3] f8- | 
[V:4] D,8- | 
[V:1] def4ed | 
[V:2] a8 | 
[V:3] f8 | 
[V:4] D,8 | 
[V:1] c8 | 
[V:2] a6gf | 
[V:3] e6dc | 
[V:4] A,8 | 
[V:1] c4B4 | 
[V:2] a2A2B2G2 | 
[V:3] f2e4d2- | 
[V:4] A,4G,4 | 
[V:1] A4G4 | 
[V:2] ABcdefg2- | 
[V:3] d2c4B2 | 
[V:4] F,4E,4 | 
[V:1] z2d4e2 | 
[V:2] g2G2A2G2- | 
[V:3] _e2d4c2- | 
[V:4] G,4F,2E,2 | 
[V:1] f4e2g2- | 
[V:2] G2F2G4 | 
[V:3] c2=B2c3d | 
[V:4] D,4C,4 | 
[V:1] gfede2d2- | 
[V:2] z8 | 
[V:3] efg4fe | 
[V:4] z2C4B,2 | 
[V:1] d2c4=B2 | 
[V:2] z4z2g2- | 
[V:3] fedcd4 | 
[V:4] A,4G,4 | 
[V:1] c8 | 
[V:2] gfede2a2- | 
[V:3] c8 | 
[V:4] C,4z2C2- | 
[V:1] z8 | 
[V:2] agfef2g2 | 
[V:3] z8 | 
[V:4] CB,A,G,A,2G,2- | 
[V:1] z8 | 
[V:2] e2a4g2- | 
[V:3] c8- | 
[V:4] G,2F,3E,E,2 | 
[V:1] z4c4- | 
[V:2] g2f4e2 | 
[V:3] c8 | 
[V:4] F,4C,4 | 
[V:1] c2A2A4 | 
[V:2] f6ed | 
[V:3] A8- | 
[V:4] F,8- | 
[V:1] z2c4BA | 
[V:2] c4z2f2 | 
[V:3] A8 | 
[V:4] F,8 | 
[V:1] G2A4G2 | 
[V:2] e2f2c4 | 
[V:3] c8- | 
[V:4] z2F,4E,2 | 
[V:1] A2G2A2F2 | 
[V:2] z4z2f2- | 
[V:3] c8 | 
[V:4] F,2E,2F,4 | 
[V:1] G4F4 | 
[V:2] f2e2f2ed | 
[V:3] c3BAGA2- | 
[V:4] C,4F,4- | 
[V:1] c8 | 
[V:2] c2f4e2 | 
[V:3] A2F2G4 | 
[V:4] F,2E,D,C,4 | 
[V:1] A8 | 
[V:2] f4F4 | 
[V:3] F4c4- | 
[V:4] F,8- | 
[V:1] z4z2c2- | 
[V:2] c6A2 | 
[V:3] c2A2A4 | 
[V:4] F,8 | 
[V:1] c2BAG2A2 | 
[V:2] A3Bcde2- | 
[V:3] z2c4BA | 
[V:4] z8 | 
[V:1] B2c4B2 | 
[V:2] e2dcd4 | 
[V:3] G2A4G2 | 
[V:4] z8 | 
[V:1] c2B2c2A2 | 
[V:2] c2d2c2f2- | 
[V:3] A2G2A2F2 | 
[V:4] z8 | 
[V:1] B4A4 | 
[V:2] f2e2f4- | 
[V:3] G4F2c2- | 
[V:4] z4F,4 | 
[V:1] z8 | 
[V:2] f2d2d4 | 
[V:3] c2A2A4 | 
[V:4] F,6D,2 | 
[V:1] z8 | 
[V:2] z2f4ed | 
[V:3] z2d4cB | 
[V:4] D,4z2F,2- | 
[V:1] z8 | 
[V:2] c2f2e2d2 | 
[V:3] A8- | 
[V:4] F,2E,D,C,2D,2- | 
[V:1] z4A4 | 
[V:2] e4d2e2 | 
[V:3] A8 | 
[V:4] D,2C,2D,2C,2 | 
[V:1] B4c4 | 
[V:2] f8- | 
[V:3] z4A4 | 
[V:4] D,2B,,2F,4 | 
[V:1] d6f2- | 
[V:2] f8 | 
[V:3] B8- | 
[V:4] B,,8- | 
[V:1] fed4cB | 
[V:2] f8- | 
[V:3] B8 | 
[V:4] B,,8 | 
[V:1] A6A2 | 
[V:2] f8- | 
[V:3] c4c2A2- | 
[V:4] F,8- | 
[V:1] A4c4 | 
[V:2] f8 | 
[V:3] ABc4BA | 
[V:4] F,8 | 
[V:1] B2A2B4 | 
[V:2] z8 | 
[V:3] G2F2G4 | 
[V:4] z2F,4E,2 | 
[V:1] A6GF | 
[V:2] z8 | 
[V:3] F4z4 | 
[V:4] F,2D,2F,3D, | 
[V:1] G2F2c4- | 
[V:2] z4f4 | 
[V:3] z4F4 | 
[V:4] E,2D,2F,2E,D, | 
[V:1] c2BAG4 | 
[V:2] e8 | 
[V:3] c6BA | 
[V:4] C,8- | 
[V:1] z4G4 | 
[V:2] e4e4 | 
[V:3] G8 | 
[V:4] C,8 | 
[V:1] A4A2B2- | 
[V:2] f8 | 
[V:3] d8- | 
[V:4] z8 | 
[V:1] B2B2A4 | 
[V:2] g4d2f2- | 
[V:3] d8 | 
[V:4] G,4F,2D,2 | 
[V:1] A2G4G2 | 
[V:2] f2g2e4 | 
[V:3] c8 | 
[V:4] F,2E,2C,4 | 
[V:1] F4F2G2- | 
[V:2] d6B2 | 
[V:3] A4A2G2- | 
[V:4] D,4D,2E,2- | 
[V:1] G2FEF2D2 | 
[V:2] c4d2A2 | 
[V:3] G2G2A4 | 
[V:4] E,2E,2D,4 | 
[V:1] F2E3FGA | 
[V:2] B2c3de2 | 
[V:3] F2G3ABc | 
[V:4] D,2C,4C,2 | 
[V:1] B3AGFG2- | 
[V:2] f2d4c2- | 
[V:3] d2B4G2 | 
[V:4] B,,4_E,4 | 
[V:1] G2F4E2 | 
[V:2] c2B2c4 | 
[V:3] A2F2G4 | 
[V:4] D,4C,4 | 
[V:1] F8- | 
[V:2] c8- | 
[V:3] F8- | 
[V:4] z4F,,4 | 
[V:1] F8 |]  
[V:2] c8 |]  
[V:3] F8 |]  
[V:4] F,,8 |]  



